X: 6
T: Drowsy Maggie
R: reel
M: 4/4
L: 1/8
K: Edor
|:E2BE dEBE|E2BE AFDF|E2BE dEBE|1 BABc dAFD:|2 BABc dAFA|||:d2fd cdec|defg afge|1 d2fd c2ec|BABc dAFA:|2 afge fdec|BABc dAFA|||:dBfB dBfB|cAeA cAeA|1 dBfB dBfB|defg aece:|2 defg aecA|BABc dAFA|||:dffe dfBf|ceed ceAe|1 dffe defg|a2ag aece:|2 af=ge fdec|BABc dAFD||


Tune 27	Setting 21232

